!!!OTL: GRUEN IST DIE FARBE DER HOFFNUNG
!!!ARE: Europa, Mitteleuropa, Deutschland
!!!SCT: F0666
!!!YEM: Copyright 1995, estate of Helmut Schaffrath.
**kern
*ICvox
*Ivox
*M6/8
*k[f#]
*G:
{8dd
=1
4dd
8b
8.b
16a
8b
=2
4.cc
4a}
{8a
=3
4b
8g
8.g
16a
8b
=4
2a
8r}
{8d
=5
4g
8a
8.b
16a
8g
=6
4.a
4d}
{8a
=7
4b
8a
8.g
16a
8b
=8
4.a
4d}
{8dd
=9
4.dd
4.b
=10
4cc
8a
4a}
{8cc
=11
4b
8g
8a
8b
8a
=12
2g
4r
=13
4r}
{8b
8a
8b
8a
=14
4.g
4r}
==
!!!AGN: Staende -, Jaeger - Lied
!!!ONB: ESAC (Essen Associative Code) Database: FINK
!!!AMT: compound duple
!!!AIN: vox
!!!EED: Helmut Schaffrath
!!!EEV: 1.0
*-
